communes/6625.svg

<?xml version="1.0" encoding="UTF-8" standalone="no"?>
<svg
   xmlns:i="http://ns.adobe.com/AdobeIllustrator/10.0/"
   xmlns:dc="http://purl.org/dc/elements/1.1/"
   xmlns:cc="http://web.resource.org/cc/"
   xmlns:rdf="http://www.w3.org/1999/02/22-rdf-syntax-ns#"
   xmlns:svg="http://www.w3.org/2000/svg"
   xmlns="http://www.w3.org/2000/svg"
   xmlns:xlink="http://www.w3.org/1999/xlink"
   xmlns:sodipodi="http://sodipodi.sourceforge.net/DTD/sodipodi-0.dtd"
   xmlns:inkscape="http://www.inkscape.org/namespaces/inkscape"
   height="763"
   width="603"
   version="1.0"
   id="svg20"
   sodipodi:version="0.32"
   inkscape:version="0.44"
   sodipodi:docname="Hermance-blason.svg"
   sodipodi:docbase="C:\Documents and Settings\Steve\Bureau\Blason Villages Suisse pour Wikipédia (par Delta-9)\GE">
  <metadata
     id="metadata31">
    <rdf:RDF>
      <cc:Work
         rdf:about="">
        <dc:format>image/svg+xml</dc:format>
        <dc:type
           rdf:resource="http://purl.org/dc/dcmitype/StillImage" />
        <dc:date>07-AUG-2006</dc:date>
        <dc:creator>
          <cc:Agent>
            <dc:title>Jérôme BLUM (wagner51)</dc:title>
          </cc:Agent>
        </dc:creator>
        <cc:license
           rdf:resource="http://creativecommons.org/licenses/GPL/2.0/" />
        <dc:coverage />
        <dc:description>Gabarit pour le Projet:Blasons de WIkipédia</dc:description>
        <dc:subject>
          <rdf:Bag>
            <rdf:li>blason suisse modèle gabarit projet blasons</rdf:li>
          </rdf:Bag>
        </dc:subject>
        <dc:language>fr</dc:language>
        <dc:title>Gabrit d'un blason suisse</dc:title>
      </cc:Work>
      <cc:License
         rdf:about="http://creativecommons.org/licenses/GPL/2.0/">
        <cc:permits
           rdf:resource="http://web.resource.org/cc/Reproduction" />
        <cc:permits
           rdf:resource="http://web.resource.org/cc/Distribution" />
        <cc:requires
           rdf:resource="http://web.resource.org/cc/Notice" />
        <cc:permits
           rdf:resource="http://web.resource.org/cc/DerivativeWorks" />
        <cc:requires
           rdf:resource="http://web.resource.org/cc/ShareAlike" />
        <cc:requires
           rdf:resource="http://web.resource.org/cc/SourceCode" />
      </cc:License>
    </rdf:RDF>
  </metadata>
  <defs
     id="defs29">
    <linearGradient
       id="linearGradient2893">
      <stop
         style="stop-color:#ffffff;stop-opacity:0.3137255;"
         offset="0"
         id="stop2895" />
      <stop
         id="stop2897"
         offset="0.19"
         style="stop-color:#ffffff;stop-opacity:0.25098041;" />
      <stop
         style="stop-color:#6b6b6b;stop-opacity:0.1254902;"
         offset="0.60000002"
         id="stop2901" />
      <stop
         style="stop-color:#000000;stop-opacity:0.1254902;"
         offset="1"
         id="stop2899" />
    </linearGradient>
    <linearGradient
       id="linearGradient2955">
      <stop
         style="stop-color:white;stop-opacity:0;"
         offset="0"
         id="stop2965" />
      <stop
         style="stop-color:black;stop-opacity:0.64583331;"
         offset="1"
         id="stop2959" />
    </linearGradient>
    <radialGradient
       inkscape:collect="always"
       xlink:href="#linearGradient2893"
       id="radialGradient3236"
       gradientUnits="userSpaceOnUse"
       gradientTransform="matrix(1.215027,1.531577e-24,1.464684e-23,1.266667,-839.1924,-490.4894)"
       cx="858.04236"
       cy="579.93323"
       fx="858.04236"
       fy="579.93323"
       r="300" />
    <foreignObject
       requiredExtensions="http://ns.adobe.com/AdobeIllustrator/10.0/"
       x="0"
       y="0"
       width="1"
       height="1"
       id="foreignObject1985">
      <i:pgfRef
         xlink:href="#adobe_illustrator_pgf" />
    </foreignObject>
  </defs>
  <sodipodi:namedview
     inkscape:window-height="973"
     inkscape:window-width="1280"
     inkscape:pageshadow="2"
     inkscape:pageopacity="0.0"
     guidetolerance="10.0"
     gridtolerance="10.0"
     objecttolerance="10.0"
     borderopacity="1.0"
     bordercolor="#666666"
     pagecolor="#ffffff"
     id="base"
     inkscape:zoom="0.94298271"
     inkscape:cx="293.67838"
     inkscape:cy="376.09821"
     inkscape:window-x="-4"
     inkscape:window-y="-4"
     inkscape:current-layer="layer1"
     showgrid="false"
     showguides="true"
     inkscape:guide-bbox="true" />
  <desc
     id="desc22">Coat of Arms of Canton of Freiburg (Fribourg)</desc>
  <g
     inkscape:groupmode="layer"
     id="layer1"
     inkscape:label="Fond écu"
     style="display:inline"
     sodipodi:insensitive="true">
    <path
       id="path1899"
       d="M 1.5,1.49998 L 1.5,460.3679 C 1.5,626.6785 135.81456,761.5 301.49999,761.5 C 467.18543,761.5 601.5,626.6785 601.5,460.3679 L 601.5,1.49998 L 1.5,1.49998 z "
       style="fill:#e20909;fill-opacity:1" />
  </g>
  <g
     inkscape:groupmode="layer"
     id="layer2"
     inkscape:label="Meubles"
     style="opacity:1;display:inline"
     sodipodi:insensitive="true">
    <path
       style="fill:#fcef3c;fill-opacity:1;stroke:black;stroke-width:2.75;stroke-miterlimit:4;stroke-dasharray:none;stroke-opacity:1"
       d="M 88.03125,1.5 L 88.03125,671.9375 C 112.58494,696.89852 141.44006,717.57656 173.40625,732.75 L 173.40625,1.5 L 88.03125,1.5 z M 258.8125,1.5 L 258.8125,758.46875 C 272.75618,760.46267 287.00738,761.5 301.5,761.5 C 315.99262,761.5 330.24382,760.46267 344.1875,758.46875 L 344.1875,1.5 L 258.8125,1.5 z M 429.59375,1.5 L 429.59375,732.75 C 461.55994,717.57656 490.41506,696.89852 514.96875,671.9375 L 514.96875,1.5 L 429.59375,1.5 z "
       id="path2107" />
    <rect
       id="rect3915"
       height="88.412857"
       width="29.790852"
       i:knockout="Off"
       y="569.37622"
       x="286.6138"
       style="fill:#2b5df2;fill-opacity:1;stroke:black;stroke-width:2.75;stroke-miterlimit:4;stroke-dasharray:none" />
    <rect
       id="rect3917"
       height="88.412857"
       width="29.790852"
       i:knockout="Off"
       y="405.01898"
       x="286.6138"
       style="fill:#2b5df2;fill-opacity:1;stroke:black;stroke-width:2.75;stroke-miterlimit:4;stroke-dasharray:none" />
    <rect
       id="rect3919"
       height="88.412857"
       width="29.790852"
       i:knockout="Off"
       y="240.66405"
       x="286.6138"
       style="fill:#2b5df2;fill-opacity:1;stroke:black;stroke-width:2.75;stroke-miterlimit:4;stroke-dasharray:none" />
    <rect
       id="rect3921"
       height="88.412857"
       width="29.790852"
       i:knockout="Off"
       y="76.306824"
       x="286.6138"
       style="fill:#2b5df2;fill-opacity:1;stroke:black;stroke-width:2.75;stroke-miterlimit:4;stroke-dasharray:none" />
    <rect
       style="fill:#2b5df2;fill-opacity:1;stroke:black;stroke-width:2.75;stroke-miterlimit:4;stroke-dasharray:none"
       x="116.81546"
       y="406.16629"
       i:knockout="Off"
       width="29.790852"
       height="88.412857"
       id="rect3927" />
    <rect
       style="fill:#2b5df2;fill-opacity:1;stroke:black;stroke-width:2.75;stroke-miterlimit:4;stroke-dasharray:none"
       x="116.81546"
       y="241.81134"
       i:knockout="Off"
       width="29.790852"
       height="88.412857"
       id="rect3929" />
    <rect
       style="fill:#2b5df2;fill-opacity:1;stroke:black;stroke-width:2.75;stroke-miterlimit:4;stroke-dasharray:none"
       x="116.81546"
       y="77.454109"
       i:knockout="Off"
       width="29.790852"
       height="88.412857"
       id="rect3931" />
    <rect
       style="fill:#2b5df2;fill-opacity:1;stroke:black;stroke-width:2.75;stroke-miterlimit:4;stroke-dasharray:none"
       x="457.42645"
       y="405.01898"
       i:knockout="Off"
       width="29.790852"
       height="88.412857"
       id="rect3937" />
    <rect
       style="fill:#2b5df2;fill-opacity:1;stroke:black;stroke-width:2.75;stroke-miterlimit:4;stroke-dasharray:none"
       x="457.42645"
       y="240.66405"
       i:knockout="Off"
       width="29.790852"
       height="88.412857"
       id="rect3939" />
    <rect
       style="fill:#2b5df2;fill-opacity:1;stroke:black;stroke-width:2.75;stroke-miterlimit:4;stroke-dasharray:none"
       x="457.42645"
       y="76.306824"
       i:knockout="Off"
       width="29.790852"
       height="88.412857"
       id="rect3941" />
  </g>
  <g
     inkscape:groupmode="layer"
     id="layer3"
     inkscape:label="Reflet final"
     style="display:inline"
     sodipodi:insensitive="true">
    <path
       style="fill:url(#radialGradient3236);fill-opacity:1"
       d="M 1.5,1.5 L 1.5,460.3679 C 1.5,626.67854 135.81454,761.5 301.49993,761.5 C 467.1854,761.5 601.5,626.67854 601.5,460.3679 L 601.5,1.5 L 1.5,1.5 z "
       id="path2346" />
  </g>
  <g
     inkscape:groupmode="layer"
     id="layer4"
     inkscape:label="Contour final"
     style="display:inline"
     sodipodi:insensitive="true">
    <path
       style="fill:none;fill-opacity:1;stroke:black;stroke-width:3;stroke-miterlimit:4;stroke-dasharray:none;stroke-opacity:1"
       d="M 1.5,1.5 L 1.5,460.36794 C 1.5,626.67854 135.81454,761.5 301.49993,761.5 C 467.1854,761.5 601.5,626.67854 601.5,460.36794 L 601.5,1.5 L 1.5,1.5 z "
       id="path3239" />
  </g>
</svg>

<?xml version="1.0" encoding="UTF-8"?>
<svg version="1.0" viewBox="0 0 603 763" xmlns="http://www.w3.org/2000/svg" xmlns:cc="http://web.resource.org/cc/" xmlns:dc="http://purl.org/dc/elements/1.1/" xmlns:rdf="http://www.w3.org/1999/02/22-rdf-syntax-ns#" xmlns:xlink="http://www.w3.org/1999/xlink">
<metadata>
<rdf:RDF>
<cc:Work rdf:about="">
<dc:format>image/svg+xml</dc:format>
<dc:type rdf:resource="http://purl.org/dc/dcmitype/StillImage"/>
<dc:date>07-AUG-2006</dc:date>
<dc:creator>
<cc:Agent>
<dc:title>Jérôme BLUM (wagner51)</dc:title>
</cc:Agent>
</dc:creator>
<cc:license rdf:resource="http://creativecommons.org/licenses/GPL/2.0/"/>
<dc:coverage/>
<dc:description>Gabarit pour le Projet:Blasons de WIkipédia</dc:description>
<dc:subject>
<rdf:Bag>
<rdf:li>blason suisse modèle gabarit projet blasons</rdf:li>
</rdf:Bag>
</dc:subject>
<dc:language>fr</dc:language>
<dc:title>Gabrit d'un blason suisse</dc:title>
</cc:Work>
<cc:License rdf:about="http://creativecommons.org/licenses/GPL/2.0/">
<cc:permits rdf:resource="http://web.resource.org/cc/Reproduction"/>
<cc:permits rdf:resource="http://web.resource.org/cc/Distribution"/>
<cc:requires rdf:resource="http://web.resource.org/cc/Notice"/>
<cc:permits rdf:resource="http://web.resource.org/cc/DerivativeWorks"/>
<cc:requires rdf:resource="http://web.resource.org/cc/ShareAlike"/>
<cc:requires rdf:resource="http://web.resource.org/cc/SourceCode"/>
</cc:License>
</rdf:RDF>
</metadata>
<defs>
<radialGradient id="a" cx="858.04" cy="579.93" r="300" gradientTransform="matrix(1.215 1.5316e-24 1.4647e-23 1.2667 -839.19 -490.49)" gradientUnits="userSpaceOnUse">
<stop stop-color="#fff" stop-opacity=".31373" offset="0"/>
<stop stop-color="#fff" stop-opacity=".25098" offset=".19"/>
<stop stop-color="#6b6b6b" stop-opacity=".12549" offset=".6"/>
<stop stop-opacity=".12549" offset="1"/>
</radialGradient>
</defs>
<desc>Coat of Arms of Canton of Freiburg (Fribourg)</desc>
<g>
<path d="m1.5 1.5v458.87c0 166.31 134.31 301.13 300 301.13 165.69 0 300-134.82 300-301.13v-458.87h-600z" fill="#e20909"/>
</g>
<g stroke="#000" stroke-width="2.75">
<path d="m88.031 1.5v670.44c24.554 24.961 53.409 45.639 85.375 60.812v-731.25h-85.375zm170.78 0v756.97c13.944 1.9939 28.195 3.0312 42.688 3.0312s28.744-1.0373 42.688-3.0312v-756.97h-85.375zm170.78 0v731.25c31.966-15.173 60.821-35.851 85.375-60.812v-670.44h-85.375z" fill="#fcef3c"/>
<rect x="286.61" y="569.38" width="29.791" height="88.413" fill="#2b5df2"/>
<rect x="286.61" y="405.02" width="29.791" height="88.413" fill="#2b5df2"/>
<rect x="286.61" y="240.66" width="29.791" height="88.413" fill="#2b5df2"/>
<rect x="286.61" y="76.307" width="29.791" height="88.413" fill="#2b5df2"/>
<rect x="116.82" y="406.17" width="29.791" height="88.413" fill="#2b5df2"/>
<rect x="116.82" y="241.81" width="29.791" height="88.413" fill="#2b5df2"/>
<rect x="116.82" y="77.454" width="29.791" height="88.413" fill="#2b5df2"/>
<rect x="457.43" y="405.02" width="29.791" height="88.413" fill="#2b5df2"/>
<rect x="457.43" y="240.66" width="29.791" height="88.413" fill="#2b5df2"/>
<rect x="457.43" y="76.307" width="29.791" height="88.413" fill="#2b5df2"/>
</g>
<g>
<path d="m1.5 1.5v458.87c0 166.31 134.31 301.13 300 301.13 165.69 0 300-134.82 300-301.13v-458.87h-600z" fill="url(#a)"/>
<path d="m1.5 1.5v458.87c0 166.31 134.31 301.13 300 301.13 165.69 0 300-134.82 300-301.13v-458.87h-600z" fill="none" stroke="#000" stroke-width="3"/>
</g>
</svg>
